X:26
T:Butter fly Hornpipe. JBu.26
O:England,South Yorkshire
S:Joshua Burnett’s MS,c1835,S.Yorkshire
M:C|
L:1/8
Q:1/2=90
R:.hornpipe
Z:vmp.R.Greig.2011
K:D
FG|AFGA BcdB|Adfe dcBA|GFGE FEFD|CDEF E2FG|
AFGA BcdB|Adfe dcBA|Adfd Bgec|d2d2d2:|
|:f2|gfge Acec|dcdf e3f|gfge Acec|dfed cBAF|
GFGA BcdB|Adfe dcBA|Aded Bgec|d2d2d2:|

